material/.icons/material/office-building.svg

<svg xmlns="http://www.w3.org/2000/svg" viewBox="0 0 24 24"><path d="M5 3v18h6v-3.5h2V21h6V3H5m2 2h2v2H7V5m4 0h2v2h-2V5m4 0h2v2h-2V5M7 9h2v2H7V9m4 0h2v2h-2V9m4 0h2v2h-2V9m-8 4h2v2H7v-2m4 0h2v2h-2v-2m4 0h2v2h-2v-2m-8 4h2v2H7v-2m8 0h2v2h-2v-2z"/></svg>

<?xml version="1.0" encoding="UTF-8"?><!DOCTYPE svg PUBLIC "-//W3C//DTD SVG 1.1//EN" "http://www.w3.org/Graphics/SVG/1.1/DTD/svg11.dtd"><svg xmlns="http://www.w3.org/2000/svg" xmlns:xlink="http://www.w3.org/1999/xlink" version="1.1" id="mdi-office-building" width="24" height="24" viewBox="0 0 24 24"><path d="M5,3V21H11V17.5H13V21H19V3H5M7,5H9V7H7V5M11,5H13V7H11V5M15,5H17V7H15V5M7,9H9V11H7V9M11,9H13V11H11V9M15,9H17V11H15V9M7,13H9V15H7V13M11,13H13V15H11V13M15,13H17V15H15V13M7,17H9V19H7V17M15,17H17V19H15V17Z" /></svg>
